svgs/sharp-regular/hanukiah.svg

<svg xmlns="http://www.w3.org/2000/svg" viewBox="0 0 640 512"><!--! Font Awesome Pro 6.6.0 by @fontawesome - https://fontawesome.com License - https://fontawesome.com/license (Commercial License) Copyright 2024 Fonticons, Inc. --><path d="M320 0c.9 1.6 2.3 3.6 3.9 6C331.2 17.1 344 36.3 344 56c0 13.3-10.7 24-24 24s-24-10.7-24-24c0-19.7 12.8-38.9 20.1-50c1.6-2.4 3-4.5 3.9-6zM24 48c.9 1.6 2.3 3.6 3.9 6C35.2 65.1 48 84.3 48 104c0 13.3-10.7 24-24 24s-24-10.7-24-24C0 84.3 12.8 65.1 20.1 54c1.6-2.4 3-4.5 3.9-6zm84.1 6c1.6-2.4 3-4.5 3.9-6c.9 1.6 2.3 3.6 3.9 6c0 0 0 0 0 0c7.4 11.1 20.1 30.3 20.1 50c0 13.3-10.7 24-24 24s-24-10.7-24-24c0-19.7 12.8-38.9 20.1-50zM176 48c.9 1.6 2.3 3.6 3.9 6c0 0 0 0 0 0c7.4 11.1 20.1 30.3 20.1 50c0 13.3-10.7 24-24 24s-24-10.7-24-24c0-19.7 12.8-38.9 20.1-50c1.6-2.4 3-4.5 3.9-6zm60.1 6c1.6-2.4 3-4.5 3.9-6c.9 1.6 2.3 3.6 3.9 6c0 0 0 0 0 0c7.4 11.1 20.1 30.3 20.1 50c0 13.3-10.7 24-24 24s-24-10.7-24-24c0-19.7 12.8-38.9 20.1-50zM400 48c.9 1.6 2.3 3.6 3.9 6c7.4 11.1 20.1 30.3 20.1 50c0 13.3-10.7 24-24 24s-24-10.7-24-24c0-19.7 12.8-38.9 20.1-50c1.6-2.4 3-4.5 3.9-6zm124.1 6c1.6-2.4 3-4.5 3.9-6c.9 1.6 2.3 3.6 3.9 6c7.4 11.1 20.1 30.3 20.1 50c0 13.3-10.7 24-24 24s-24-10.7-24-24c0-19.7 12.8-38.9 20.1-50zM464 48c.9 1.6 2.3 3.6 3.9 6c7.4 11.1 20.1 30.3 20.1 50c0 13.3-10.7 24-24 24s-24-10.7-24-24c0-19.7 12.8-38.9 20.1-50c1.6-2.4 3-4.5 3.9-6zm148.1 6c1.6-2.4 3-4.5 3.9-6c.9 1.6 2.3 3.6 3.9 6c7.4 11.1 20.1 30.3 20.1 50c0 13.3-10.7 24-24 24s-24-10.7-24-24c0-19.7 12.8-38.9 20.1-50zM344 112l0 24 0 200 208 0c22.1 0 40-17.9 40-40l0-112 0-24 48 0 0 24 0 112c0 48.6-39.4 88-88 88l-208 0 0 80 152 0 24 0 0 48-24 0-176 0-176 0-24 0 0-48 24 0 152 0 0-80L88 384c-48.6 0-88-39.4-88-88L0 184l0-24 48 0 0 24 0 112c0 22.1 17.9 40 40 40l208 0 0-200 0-24 48 0zM128 176l0 112 0 16-32 0 0-16 0-112 0-16 32 0 0 16zm64 0l0 112 0 16-32 0 0-16 0-112 0-16 32 0 0 16zm64 0l0 112 0 16-32 0 0-16 0-112 0-16 32 0 0 16zm160 0l0 112 0 16-32 0 0-16 0-112 0-16 32 0 0 16zm64 0l0 112 0 16-32 0 0-16 0-112 0-16 32 0 0 16zm64 0l0 112 0 16-32 0 0-16 0-112 0-16 32 0 0 16z"/></svg>

<svg xmlns="http://www.w3.org/2000/svg" viewBox="0 0 640 512"><!--! Font Awesome Pro 6.4.2 by @fontawesome - https://fontawesome.com License - https://fontawesome.com/license (Commercial License) Copyright 2023 Fonticons, Inc. --><path d="M320 0c.9 1.6 2.3 3.6 3.9 6C331.2 17.1 344 36.3 344 56c0 13.3-10.7 24-24 24s-24-10.7-24-24c0-19.7 12.8-38.9 20.1-50c1.6-2.4 3-4.5 3.9-6zM24 48c.9 1.6 2.3 3.6 3.9 6C35.2 65.1 48 84.3 48 104c0 13.3-10.7 24-24 24s-24-10.7-24-24C0 84.3 12.8 65.1 20.1 54c1.6-2.4 3-4.5 3.9-6zm84.1 6c1.6-2.4 3-4.5 3.9-6c.9 1.6 2.3 3.6 3.9 6l0 0c7.4 11.1 20.1 30.3 20.1 50c0 13.3-10.7 24-24 24s-24-10.7-24-24c0-19.7 12.8-38.9 20.1-50zM176 48c.9 1.6 2.3 3.6 3.9 6l0 0c7.4 11.1 20.1 30.3 20.1 50c0 13.3-10.7 24-24 24s-24-10.7-24-24c0-19.7 12.8-38.9 20.1-50c1.6-2.4 3-4.5 3.9-6zm60.1 6c1.6-2.4 3-4.5 3.9-6c.9 1.6 2.3 3.6 3.9 6l0 0c7.4 11.1 20.1 30.3 20.1 50c0 13.3-10.7 24-24 24s-24-10.7-24-24c0-19.7 12.8-38.9 20.1-50zM400 48c.9 1.6 2.3 3.6 3.9 6c7.4 11.1 20.1 30.3 20.1 50c0 13.3-10.7 24-24 24s-24-10.7-24-24c0-19.7 12.8-38.9 20.1-50c1.6-2.4 3-4.5 3.9-6zm124.1 6c1.6-2.4 3-4.5 3.9-6c.9 1.6 2.3 3.6 3.9 6c7.4 11.1 20.1 30.3 20.1 50c0 13.3-10.7 24-24 24s-24-10.7-24-24c0-19.7 12.8-38.9 20.1-50zM464 48c.9 1.6 2.3 3.6 3.9 6c7.4 11.1 20.1 30.3 20.1 50c0 13.3-10.7 24-24 24s-24-10.7-24-24c0-19.7 12.8-38.9 20.1-50c1.6-2.4 3-4.5 3.9-6zm148.1 6c1.6-2.4 3-4.5 3.9-6c.9 1.6 2.3 3.6 3.9 6c7.4 11.1 20.1 30.3 20.1 50c0 13.3-10.7 24-24 24s-24-10.7-24-24c0-19.7 12.8-38.9 20.1-50zM344 112v24V336H552c22.1 0 40-17.9 40-40V184 160h48v24V296c0 48.6-39.4 88-88 88H344v80H496h24v48H496 320 144 120V464h24H296V384H88c-48.6 0-88-39.4-88-88V184 160H48v24V296c0 22.1 17.9 40 40 40H296V136 112h48zM128 176V288v16H96V288 176 160h32v16zm64 0V288v16H160V288 176 160h32v16zm64 0V288v16H224V288 176 160h32v16zm160 0V288v16H384V288 176 160h32v16zm64 0V288v16H448V288 176 160h32v16zm64 0V288v16H512V288 176 160h32v16z"/></svg>
